X:352
T:Panhandle Rag
C:Based on Chris Thile arrangement
N:Transcribed by Larry Tanner
R:bluegrass
L:1/8
Q:1/4=200
M:4/4
K:D
z8 | z2 {^g}a2 f2 e2 | "A"[f2=c2] [f2^c2] A2 DE | "D"FA B=c BA F=F | "A"EA zE A2 z=c | 
ce ze f2 a2 | "E"g^g ga g2 =g2 | (3f^gf ef ge fg | "A"a2 a2 ^ga gf | "E"zf ^ga cf ce | 
"A"[f2=c2] [f2^c2] A2 D=F | "D"FA B=c BA F=F | "A"EA ^GB Ac =cd | ce ze {=f}^f2 a2 | 
"E"g^g ga g=g f2 | (3f^gf ef ge fg | "A"ae cf ec =c^c | "A7"AF A2 AB A2 | "D"=cA BA cA BA | 
=cA BA cA Bc | "A"cf d=c ^cA FA | "A7"zA ^G=G zA BA | "D"=cA BA cA BA | =cA BA cA Bc | 
"A"ce fe bc' ^gf | "E"e2 e'2 ^d'2 =d'2 | {=c'}"A"^c'a f^d =d3=F | "D"FA B=c BA FE | 
"A"FA zA3 =c^c | e2 ez f2 ae | {g}"E"^gb ge =g2 f2 | ef {=c}^ce dc AF | "A"AF zE FA Bc | 
A8 | 


